input/Regular/InformationFilled.svg

<svg width="32" height="32" viewBox="0 0 32 32" fill="none" xmlns="http://www.w3.org/2000/svg">
<path fill-rule="evenodd" clip-rule="evenodd" d="M2 16C2 8.26801 8.26802 2 16 2C23.732 2 30 8.26801 30 16C30 23.732 23.732 30 16 30C8.26801 30 2 23.732 2 16ZM17.5 10.5C17.5 9.67158 16.8284 9 16 9C15.1716 9 14.5 9.67158 14.5 10.5C14.5 11.3284 15.1716 12 16 12C16.8284 12 17.5 11.3284 17.5 10.5ZM19 22C19 22.5523 18.5523 23 18 23H16C15.4477 23 15 22.5523 15 22V16H14C13.4477 16 13 15.5523 13 15C13 14.4477 13.4477 14 14 14H16C16.5523 14 17 14.4477 17 15V21H18C18.5523 21 19 21.4477 19 22Z" fill="#808080"/>
</svg>

<svg width="32" height="32" viewBox="0 0 32 32" fill="none" xmlns="http://www.w3.org/2000/svg"><path fill-rule="evenodd" clip-rule="evenodd" d="M2 16C2 8.268 8.268 2 16 2S30 8.268 30 16c0 7.732 -6.268 14 -14 14C8.268 30 2 23.732 2 16Zm15.5 -5.5a1.5 1.5 0 1 0 -3 0 1.5 1.5 0 0 0 3 0Zm1.5 11.5c0 0.552 -0.448 1 -1 1H16a1 1 0 0 1 -1 -1V16H14a1 1 0 1 1 0 -2H16c0.552 0 1 0.448 1 1v6h1c0.552 0 1 0.448 1 1Z" fill="#222222"/></svg>
